img/icons/cart_icon.svg

<svg enable-background="new 0 0 12 12" version="1.1" viewBox="0 0 12 12" xml:space="preserve" xmlns="http://www.w3.org/2000/svg">
<path d="m11.864 3.017c-0.082-0.098-0.203-0.154-0.327-0.154h-2.312v1.227c0 0.563-0.484 1.022-1.08 1.022-0.594 0-1.078-0.458-1.078-1.022v-1.227h-2.158v1.227c0 0.563-0.485 1.022-1.08 1.022s-1.078-0.458-1.078-1.022v-1.227h-2.313c-0.125 0-0.243 0.056-0.327 0.154-0.083 0.098-0.123 0.228-0.108 0.358l0.776 7.134c0.015 0.806 0.642 1.455 1.411 1.455h7.595c0.77 0 1.396-0.649 1.411-1.455l0.776-7.134c0.015-0.13-0.026-0.26-0.108-0.358z"/><path d="m3.829 4.499c0.239 0 0.433-0.184 0.433-0.409v-2.25c0-0.632 0.672-1.022 1.295-1.022h1.079c0.655 0 1.078 0.401 1.078 1.022v2.25c0 0.225 0.194 0.409 0.431 0.409 0.239 0 0.433-0.184 0.433-0.409v-2.25c-1e-3 -1.067-0.817-1.84-1.942-1.84h-1.079c-1.19 0-2.159 0.826-2.159 1.84v2.25c0 0.225 0.194 0.409 0.431 0.409z"/></svg>

<?xml version="1.0" encoding="utf-8"?>
<!-- Generator: Adobe Illustrator 15.0.0, SVG Export Plug-In . SVG Version: 6.00 Build 0)  -->
<!DOCTYPE svg PUBLIC "-//W3C//DTD SVG 1.1//EN" "http://www.w3.org/Graphics/SVG/1.1/DTD/svg11.dtd">
<svg version="1.1" id="Layer_1" xmlns="http://www.w3.org/2000/svg" xmlns:xlink="http://www.w3.org/1999/xlink" x="0px" y="0px"
	 width="12px" height="12px" viewBox="0 0 12 12" enable-background="new 0 0 12 12" xml:space="preserve">
<g>
	<path d="M11.864,3.017c-0.082-0.098-0.203-0.154-0.327-0.154H9.225V4.09c0,0.563-0.484,1.022-1.08,1.022
		c-0.594,0-1.078-0.458-1.078-1.022V2.863H4.909V4.09c0,0.563-0.485,1.022-1.08,1.022c-0.595,0-1.078-0.458-1.078-1.022V2.863H0.438
		c-0.125,0-0.243,0.056-0.327,0.154C0.028,3.115-0.012,3.245,0.003,3.375l0.776,7.134c0.015,0.806,0.642,1.455,1.411,1.455h7.595
		c0.77,0,1.396-0.649,1.411-1.455l0.776-7.134C11.987,3.245,11.946,3.115,11.864,3.017z"/>
	<path d="M3.829,4.499c0.239,0,0.433-0.184,0.433-0.409V1.84c0-0.632,0.672-1.022,1.295-1.022h1.079
		c0.655,0,1.078,0.401,1.078,1.022v2.25c0,0.225,0.194,0.409,0.431,0.409c0.239,0,0.433-0.184,0.433-0.409V1.84
		C8.577,0.773,7.761,0,6.636,0H5.557C4.367,0,3.398,0.826,3.398,1.84v2.25C3.398,4.315,3.592,4.499,3.829,4.499z"/>
</g>
</svg>
